X: 32203
T: Pheonix, The
R: polka
M: 2/4
K: Eminor
|:E/D/E G/F/G|B/A/B E2|BG AF|BG A2|
E/D/E G/F/G|B/A/B E2|BG AF|GE E2:|
K: Emix
|:c/B/c e2|c/B/c e2|Ac Bd|cA B2|
c/B/c e2|c/B/c e2|ec dB|cA E2:|

